X:1
T:Mr. Michie’s [2]  (Renatton)
C:J. Scott Skinner
M:C
L:1/16
R:Strathspey
B:J. Scott Skinner – Miller o’ Hirn Collection (1881, No. 43, p. 18)
Z:AK/Fiddler’s Companion
K:G
D2|G3A Bd3 cA3 [C3E3]G|F3g Ae3 dB3Bg3|G3A (Bd3) (cA3) [C3E3]G|FA3 d3B [B,4G4][B,2G2]D2|
G3A Bd3 cA3 [C3E3]G|F3G Ae3 dB3 Bg3|G3A (Bd3) cA3 [C3E3]G|(FA3) d3B [B,4G4][B,2G2]||
d2|g3d eg3 dB3 B3G|c3d eecB Aa3a3f|g3deg3 dB3B3G|(3F2D2F2 (3A2d2c2 BG3G3d|
g3de3g dB3B3G|c3d edcB Aa3 a3f|(3g2b2g2 (3d2g2d2 (3B2d2B2 (3G2B2G2|(3F2D2F2 (3A2d2c2 BG3G2||

